flutter/assets/edit2.svg

<svg width="15.5" height="15.5" version="1.1" viewBox="0 0 4.101 4.101" xml:space="preserve" xmlns="http://www.w3.org/2000/svg"><g transform="translate(-101.07 -131.76)"><g transform="matrix(.26458 0 0 .26458 101.07 131.09)" fill="none"><path d="m6.5 3.5h-4c-1.1046 0-2 0.89543-2 2v10c0 1.1046 0.89543 2 2 2h10c1.1046 0 2-0.8954 2-2v-4" stroke="#00c5ff" stroke-linecap="round"/><path d="m14.641 4.0124 0.3442-0.36289 0.0097 0.00974zm0 1.7356-0.3542-0.35291 2e-4 -2.4e-4zm-7.288 7.3146 0.35419 0.3529c-0.0563 0.0565-0.12532 0.0987-0.20127 0.1231zm-2.8738 0.9231 0.15292 0.4761-0.01047 0.0033-0.01062 0.0029zm-0.36844-0.0861-0.32967 0.3759-0.01252-0.011-0.01176-0.0118zm-0.09825-0.3693-0.49323-0.082 6e-3 -0.0361 0.01118-0.0348zm0.92109-2.868-0.47605-0.1529c0.02425-0.0755 0.06613-0.1442 0.12215-0.2003zm7.288-7.3023 0.3539 0.35315v6e-5zm1.7316 0-0.3442 0.3629-0.0097-0.00975zm1.0417 0.29923c0.6737 0.67522 0.6737 1.7667 0 2.4419l-0.7079-0.7063c0.2843-0.28488 0.2843-0.74439 0-1.0293zm3e-4 2.4416-7.288 7.3146-0.70839-0.7059 7.288-7.3145zm-7.4893 7.4377-2.8738 0.9232-0.30585-0.9521 2.8738-0.9232zm-2.8949 0.9294c-0.30654 0.0838-0.61307-0.0023-0.82994-0.1925l0.65934-0.7518c-0.0096-0.0085-0.02315-0.0163-0.04054-0.0206-0.0182-0.0044-0.0369-0.0039-0.05253 3e-4zm-0.85422-0.2153c-0.16105-0.1614-0.25658-0.3722-0.25658-0.6116h1c0-0.0149-0.00315-0.0359-0.01263-0.0581-0.00925-0.0216-0.01992-0.0336-0.02289-0.0366zm-0.25658-0.6116c0-0.0555 0.00759-0.1133 0.01051-0.1352 0.00208-0.0157 0.00412-0.0295 0.00564-0.0393 7.7e-4 -5e-3 0.00143-0.0092 0.00192-0.0123 2.5e-4 -0.0016 4.6e-4 -0.0029 6.3e-4 -0.0039 8e-5 -5e-4 1.5e-4 -9e-4 2.1e-4 -0.0013 3e-5 -1e-4 6e-5 -3e-4 8e-5 -4e-4 1e-5 -1e-4 2e-5 -2e-4 3e-5 -2e-4 1e-5 -1e-4 1e-5 -1e-4 2e-5 -1e-4l1e-5 -1e-4 0.98646 0.164c1e-5 0 1e-5 0 1e-5 -1e-4h1e-5c1e-5 -1e-4 2e-5 -1e-4 2e-5 -1e-4 1e-5 -1e-4 2e-5 -2e-4 3e-5 -2e-4l1e-5 -1e-4c-2e-5 1e-4 -7e-5 5e-4 -1.6e-4 1e-3 -1.7e-4 0.0011-4.7e-4 3e-3 -8.6e-4 0.0055-7.8e-4 0.0051-0.00181 0.0121-0.0028 0.0195-0.00322 0.0242-0.00177 0.0219-0.00177 0.0033zm0.03623-0.2637 0.92109-2.868 0.9521 0.3058-0.92109 2.868zm1.0432-3.0683 7.288-7.3023 0.7078 0.70642-7.288 7.3022zm7.2879-7.3022c0.6743-0.67585 1.7653-0.67585 2.4396 0l-0.7079 0.7063c-0.2836-0.28425-0.7402-0.28425-1.0238 0zm2.4297-0.00961 0.6878 0.65238-0.6882 0.72552-0.6878-0.65238z" fill="#00c5ff"/></g></g></svg>

<svg width="16" height="18" viewBox="0 0 16 18" fill="none" xmlns="http://www.w3.org/2000/svg">
<path d="M6.5 3.5H2.5C1.39543 3.5 0.5 4.39543 0.5 5.5L0.5 15.5C0.5 16.6046 1.39543 17.5 2.5 17.5H12.5C13.6046 17.5 14.5 16.6046 14.5 15.5V11.5" stroke="#00C5FF" stroke-linecap="round"/>
<path d="M14.6408 4.01242L14.985 3.64953L14.9947 3.65927L14.6408 4.01242ZM14.6408 5.748L14.2866 5.39509L14.2868 5.39485L14.6408 5.748ZM7.35278 13.0626L7.70697 13.4155C7.65067 13.472 7.58165 13.5142 7.5057 13.5386L7.35278 13.0626ZM4.47897 13.9857L4.63189 14.4618L4.62142 14.4651L4.6108 14.468L4.47897 13.9857ZM4.11053 13.8996L3.78086 14.2755L3.76834 14.2645L3.75658 14.2527L4.11053 13.8996ZM4.01228 13.5303L3.51905 13.4483L3.52505 13.4122L3.53623 13.3774L4.01228 13.5303ZM4.93337 10.6623L4.45732 10.5094C4.48157 10.4339 4.52345 10.3652 4.57947 10.3091L4.93337 10.6623ZM12.2214 3.36004L12.5753 3.71319L12.5753 3.71325L12.2214 3.36004ZM13.953 3.36004L13.6088 3.72294L13.5991 3.71319L13.953 3.36004ZM14.9947 3.65927C15.6684 4.33449 15.6684 5.42593 14.9947 6.10115L14.2868 5.39485C14.5711 5.10997 14.5711 4.65046 14.2868 4.36557L14.9947 3.65927ZM14.995 6.10091L7.70697 13.4155L6.99858 12.7096L14.2866 5.39509L14.995 6.10091ZM7.5057 13.5386L4.63189 14.4618L4.32604 13.5097L7.19986 12.5865L7.5057 13.5386ZM4.6108 14.468C4.30426 14.5518 3.99773 14.4657 3.78086 14.2755L4.4402 13.5237C4.4306 13.5152 4.41705 13.5074 4.39966 13.5031C4.38146 13.4987 4.36276 13.4992 4.34713 13.5034L4.6108 14.468ZM3.75658 14.2527C3.59553 14.0913 3.5 13.8805 3.5 13.6411H4.5C4.5 13.6262 4.49685 13.6052 4.48737 13.583C4.47812 13.5614 4.46745 13.5494 4.46448 13.5464L3.75658 14.2527ZM3.5 13.6411C3.5 13.5856 3.50759 13.5278 3.51051 13.5059C3.51259 13.4902 3.51463 13.4764 3.51615 13.4666C3.51692 13.4616 3.51758 13.4574 3.51807 13.4543C3.51832 13.4527 3.51853 13.4514 3.5187 13.4504C3.51878 13.4499 3.51885 13.4495 3.51891 13.4491C3.51894 13.449 3.51897 13.4488 3.51899 13.4487C3.519 13.4486 3.51901 13.4485 3.51902 13.4485C3.51903 13.4484 3.51903 13.4484 3.51904 13.4484C3.51904 13.4484 3.51905 13.4483 3.51905 13.4483C3.51905 13.4483 3.51905 13.4483 4.01228 13.5303C4.50551 13.6123 4.50551 13.6123 4.50551 13.6123C4.50552 13.6123 4.50552 13.6123 4.50552 13.6122C4.50552 13.6122 4.50553 13.6122 4.50553 13.6122C4.50554 13.6121 4.50555 13.6121 4.50555 13.6121C4.50556 13.612 4.50557 13.6119 4.50558 13.6119C4.50559 13.6118 4.50559 13.6118 4.50559 13.6118C4.50557 13.6119 4.50552 13.6123 4.50543 13.6128C4.50526 13.6139 4.50496 13.6158 4.50457 13.6183C4.50379 13.6234 4.50276 13.6304 4.50177 13.6378C4.49855 13.662 4.5 13.6597 4.5 13.6411H3.5ZM3.53623 13.3774L4.45732 10.5094L5.40942 10.8152L4.48833 13.6832L3.53623 13.3774ZM4.57947 10.3091L11.8675 3.00683L12.5753 3.71325L5.28727 11.0155L4.57947 10.3091ZM11.8674 3.00689C12.5417 2.33104 13.6327 2.33104 14.307 3.00689L13.5991 3.71319C13.3155 3.42894 12.8589 3.42894 12.5753 3.71319L11.8674 3.00689ZM14.2971 2.99728L14.9849 3.64966L14.2967 4.37518L13.6089 3.7228L14.2971 2.99728Z" fill="#00C5FF"/>
</svg>
